X:1
T:Title
%%score { ( 1 3 ) | ( 2 4 ) }
L:1/8
M:4/4
K:Bb
V:1 treble nm="Grand Piano"
V:3 treble 
V:2 bass 
V:4 bass 
V:1
 z4 z2[Q:1/4=92] [B,D][CE] | [DF][DB][DA][DB] Gc=Bc | Ad_d=d [DB]2 [DF][D^F] | GGAB c2 B2 | %4
 [Dd]6 [B,D][CE] | [DF][DB][DA][DB] Gc=Bc | Ad_d=d B2 BA | [=EA][EG][_E^F][=EG] [EA]2 [EB]2 | %8
[M:3/4] c6 |[M:1/4] Fd |[M:4/4] z4 c2 z2 | .c2 B2 z4 | B<A A>_A =Ac [Af]>[Ge] | %13
 [Fd]6[K:bass][K:treble] z2 | z4 c2 z2 | c<B B>A B2 F^F | GGAB dcAF |[M:7/8] B-B-B- B- B3 |] %18
V:2
 z4 z2 [B,,F,][B,,F,] | [B,,B,][B,,B,][B,,B,][B,,B,] [E,B,E][E,G,E][E,G,E][E,G,E] | %2
 [F,CE][F,A,E][F,A,E][F,A,E] [B,,B,]2 [B,,B,][B,,B,] | %3
 [E,B,E][E,B,E][E,A,E][E,G,E] [E,^F,E]2 [E,F,E]2 | [B,,F,]6 [B,,F,][B,,F,] | %5
 [B,,B,][B,,B,][B,,B,][B,,B,] [E,B,E][E,G,E][E,G,E][E,G,E] | %6
 [F,CE][F,A,E][F,A,E][F,A,E] [G,B,D]2 [G,B,D][G,B,D] | [C,C][C,B,][C,A,][C,B,] [C,A,]2 [C,G,]2 | %8
[M:3/4] [F,A,E]6 |[M:1/4] z2 |[M:4/4] [F,A,E]2 [F,A,E]2 [F,A,E]<[F,A,] z2 | %11
 [B,,F,]2 [B,,F,]2 [B,,F,]2 [B,,B,][D,B,] | %12
 [F,CF]<[F,CF] [F,CF]>[F,=B,F] [F,CF][F,A,F] [F,C]>[F,A,] | B,2 z2 z4 | %14
 [F,A,E]2 [F,A,E]2 [F,A,E]<[F,A,] z2 | [G,B,D]2 [G,B,D]2 [G,B,D]2 [D,B,][D,B,] | %16
 [E,B,E][E,B,E][E,A,E][E,G,E] [F,A,E][F,A,E][F,CE][F,A,E] |[M:7/8] z F,G, ^F, =F,3 |] %18
V:3
 x8 | x8 | x8 | x8 | x8 | x8 | x8 | x8 |[M:3/4] x6 |[M:1/4] x2 |[M:4/4] d<c c>B z/ E3/2 Fc | %11
 D-<[DB] D->[DA] [DB]2 [DF][FB] | x8 | z2[K:bass] A,G, F,2[K:treble] Fd | d<c c>=B z/ E3/2 Fc | %15
 x8 | x8 |[M:7/8] [B,D]DE E D3 |] %18
V:4
 x8 | x8 | x8 | x8 | x8 | x8 | x8 | x8 |[M:3/4] x6 |[M:1/4] x2 |[M:4/4] x8 | x8 | x8 | B,,6 z2 | %14
 x8 | x8 | x8 |[M:7/8] B,,-B,,-B,,- B,,- B,,3 |] %18

